images/tup.svg

<svg fill="none" height="55" viewBox="0 0 90 55" width="90" xmlns="http://www.w3.org/2000/svg"><path d="m89.0586 19.9667c-1.0935-.9718-2.7345-.7898-3.7067.3033l-5.4887 6.56c-1.3362 1.5191-2.4297 2.7335-3.5247 3.7053l.5475-1.7617c.7295-2.6122 1.0328-3.6446 1.5197-5.5882.546-2.0043.7295-3.8872.5459-5.6489-.2426-2.0043-.9115-3.7053-2.005-5.1623-1.3361-1.701-3.9493-3.76591-8.751-3.76591-1.6411 0-3.8887.36538-6.2577 1.70101-.3034-.54727-.8509-.97177-1.4591-1.1537-1.3983-.4245-2.8558.36537-3.282 1.7617-.546 1.7617-2.3083 4.9803-4.6182 7.7744l-1.2163 1.4479c-.038.0379-.0759.0743-.1123.1152l-11.3627 13.4855c-1.0329 1.1537-1.8837 1.8223-2.7952 1.8223-.546 0-.9722-.2425-1.277-.6079-.364-.4867-.4869-1.2144-.2427-2.0043l5.5449-20.1062c.182-.7292.2427-1.0931.2427-1.3372 0-1.3356-1.1542-2.49088-2.6739-2.49088-.7295 0-1.5197.30321-2.005.91116l-13.3086 15.79302c-.0501.0591-.0941.1212-.138.1834l-6.602 7.8336c-1.0329 1.1537-1.8837 1.8223-2.7952 1.8223-.546 0-.9722-.2426-1.2755-.6079-.364-.4867-.4869-1.2144-.2427-2.0043l5.2264-19.1344h5.9559c1.459 0 2.6132-1.1537 2.6132-2.6122 0-1.39784-1.1542-2.61221-2.6132-2.61221h-4.4969l1.4575-5.28505c.4262-1.39782-.4246-2.79413-1.823-3.2186318-1.3983-.3653742-2.7952.4866618-3.2198 1.8223218l-1.7624 6.37814c-1.0935 3.22013-2.3083 4.73773-6.13636 9.29353l-6.885588 8.1429c-.911507 1.0931-.85084 2.7335.242665 3.7053.486843.426 1.093503.6079 1.701683.6079.72951 0 1.4575-.3032 2.00501-.9111l4.93973-5.8339-2.24919 8.2611c-.66885 2.3681-.24267 4.7377 1.0935 6.5601 1.2755 1.701 3.28205 2.6728 5.46905 2.6728 3.4034 0 5.469-2.2468 6.9265-3.8872l6.4155-7.632c.0273-.0272.0546-.053.0819-.0833l5.7117-6.8027c-.0501.1835-.088.3427-.1138.4821l-2.3311 8.6902c-.6688 2.3681-.2426 4.7377 1.0935 6.5601 1.2755 1.701 3.2821 2.6728 5.4691 2.6728 3.4033 0 5.469-2.2468 6.9265-3.8872l5.6238-6.6905c.1183-.1061.2275-.2198.323-.3381l2.9165-3.4627c-6.0742 21.9877-6.9857 25.0259-6.9857 25.0866-.3655 1.3978.4247 2.7941 1.823 3.2186.2427.0606.4869.0606.7296.0606 1.1541 0 2.187-.7292 2.4918-1.8829 0-.0607.7295-2.7942 4.3756-15.6717 2.1278 2.6122 5.7723 3.5233 8.8724 3.5233 6.2592 0 12.3045-2.2301 19.6815-10.6322 1.4469-1.6465 5.5434-6.5116 5.5434-6.5116.9115-1.0931.7401-2.7183-.3534-3.6295zm-15.6973 1.8224c-.4869 2.0042-.7902 2.976-1.4575 5.3457-1.0935 3.9478-2.9772 8.443-7.9003 8.443-4.9822 0-7.1692-3.9479-5.5297-9.5968.3034-1.0324.6082-2.3696 1.0935-3.8266.8509-3.0367 2.187-5.285 4.0101-6.6813 1.7623-1.3372 3.464-1.6404 4.6182-1.6404 2.1278 0 3.7066.6079 4.6182 1.7617 1.0328 1.3963 1.277 3.6431.5475 6.1947z" fill="#fff"/></svg>

<svg width="90" height="55" viewBox="0 0 90 55" fill="none" xmlns="http://www.w3.org/2000/svg">
<path d="M89.0586 19.9667C87.9651 18.9949 86.3241 19.1769 85.3519 20.27L79.8632 26.83C78.527 28.3491 77.4335 29.5635 76.3385 30.5353L76.886 28.7736C77.6155 26.1614 77.9188 25.129 78.4057 23.1854C78.9517 21.1811 79.1352 19.2982 78.9516 17.5365C78.709 15.5322 78.0401 13.8312 76.9466 12.3742C75.6105 10.6732 72.9973 8.60829 68.1956 8.60829C66.5545 8.60829 64.3069 8.97367 61.9379 10.3093C61.6345 9.76203 61.087 9.33753 60.4788 9.1556C59.0805 8.7311 57.623 9.52097 57.1968 10.9173C56.6508 12.679 54.8885 15.8976 52.5786 18.6917L51.3623 20.1396C51.3243 20.1775 51.2864 20.2139 51.25 20.2548L39.8873 33.7403C38.8544 34.894 38.0036 35.5626 37.0921 35.5626C36.5461 35.5626 36.1199 35.3201 35.8151 34.9547C35.4511 34.468 35.3282 33.7403 35.5724 32.9504L41.1173 12.8442C41.2993 12.115 41.36 11.7511 41.36 11.507C41.36 10.1714 40.2058 9.01612 38.6861 9.01612C37.9566 9.01612 37.1664 9.31933 36.6811 9.92728L23.3725 25.7203C23.3224 25.7794 23.2784 25.8415 23.2345 25.9037L16.6325 33.7373C15.5996 34.891 14.7488 35.5596 13.8373 35.5596C13.2913 35.5596 12.8651 35.317 12.5618 34.9517C12.1978 34.465 12.0749 33.7373 12.3191 32.9474L17.5455 13.813H23.5014C24.9604 13.813 26.1146 12.6593 26.1146 11.2008C26.1146 9.80296 24.9604 8.58859 23.5014 8.58859H19.0045L20.462 3.30354C20.8882 1.90572 20.0374 0.50941 18.639 0.0849082C17.2407 -0.280466 15.8438 0.57157 15.4192 1.90723L13.6568 8.28537C12.5633 11.5055 11.3485 13.0231 7.52044 17.5789L0.634852 25.7218C-0.276655 26.8149 -0.215988 28.4553 0.877517 29.4271C1.36436 29.8531 1.97102 30.035 2.5792 30.035C3.30871 30.035 4.0367 29.7318 4.58421 29.1239L9.52394 23.29L7.27475 31.5511C6.6059 33.9192 7.03208 36.2888 8.36825 38.1112C9.64375 39.8122 11.6503 40.784 13.8373 40.784C17.2407 40.784 19.3063 38.5372 20.7638 36.8968L27.1793 29.2648C27.2066 29.2376 27.2339 29.2118 27.2612 29.1815L32.9729 22.3788C32.9228 22.5623 32.8849 22.7215 32.8591 22.8609L30.528 31.5511C29.8592 33.9192 30.2854 36.2888 31.6215 38.1112C32.897 39.8122 34.9036 40.784 37.0906 40.784C40.4939 40.784 42.5596 38.5372 44.0171 36.8968L49.6409 30.2063C49.7592 30.1002 49.8684 29.9865 49.9639 29.8682L52.8804 26.4055C46.8062 48.3932 45.8947 51.4314 45.8947 51.4921C45.5292 52.8899 46.3194 54.2862 47.7177 54.7107C47.9604 54.7713 48.2046 54.7713 48.4473 54.7713C49.6014 54.7713 50.6343 54.0421 50.9391 52.8884C50.9391 52.8277 51.6686 50.0942 55.3147 37.2167C57.4425 39.8289 61.087 40.74 64.1871 40.74C70.4463 40.74 76.4916 38.5099 83.8686 30.1078C85.3155 28.4613 89.412 23.5962 89.412 23.5962C90.3235 22.5031 90.1521 20.8779 89.0586 19.9667ZM73.3613 21.7891C72.8744 23.7933 72.5711 24.7651 71.9038 27.1348C70.8103 31.0826 68.9266 35.5778 64.0035 35.5778C59.0213 35.5778 56.8343 31.6299 58.4738 25.981C58.7772 24.9486 59.082 23.6114 59.5673 22.1544C60.4182 19.1177 61.7543 16.8694 63.5774 15.4731C65.3397 14.1359 67.0414 13.8327 68.1956 13.8327C70.3234 13.8327 71.9022 14.4406 72.8138 15.5944C73.8466 16.9907 74.0908 19.2375 73.3613 21.7891Z" fill="white"/>
</svg>
